icons/desktop/20/warning-20.svg

<svg width="20" height="20" viewBox="0 0 20 20" fill="none" xmlns="http://www.w3.org/2000/svg">
<path d="M9.99999 13.5C10.5523 13.5 11 13.9477 11 14.5C11 15.0523 10.5523 15.5 9.99999 15.5C9.4477 15.5 8.99999 15.0523 8.99999 14.5C8.99999 13.9477 9.4477 13.5 9.99999 13.5Z" fill="black"/>
<path d="M9.99999 6.5C10.483 6.50001 10.875 6.89201 10.875 7.375V11.125C10.875 11.608 10.483 12 9.99999 12C9.51699 12 9.12499 11.608 9.12499 11.125V7.375C9.12499 6.892 9.51699 6.5 9.99999 6.5Z" fill="black"/>
<path fill-rule="evenodd" clip-rule="evenodd" d="M9.96385 1C11.1599 1 12.3554 1.59883 13.0224 2.79883L19.0459 13.6299C20.2988 15.8838 18.7632 18.6859 16.1885 18.8291C14.0256 18.9491 11.9644 19 10.0185 19C7.85254 19 5.774 18.9372 3.791 18.8262C1.23115 18.6821 -0.286454 15.8944 0.947253 13.6475L6.89647 2.81543C7.56043 1.60551 8.76193 1.00008 9.96385 1ZM9.96385 2.75C9.6527 2.75004 8.87859 2.8394 8.4287 3.6582L2.48046 14.4902C2.05847 15.2592 2.34334 15.9383 2.48534 16.1943C2.62452 16.4445 3.03836 17.031 3.88768 17.0791C5.91968 17.1931 7.98257 17.251 10.0176 17.251C12.0343 17.251 14.0771 17.194 16.0898 17.082C16.9548 17.034 17.3756 16.4357 17.5156 16.1807C17.6576 15.9236 17.9405 15.2453 17.5156 14.4805L11.4932 3.64941C11.0422 2.83841 10.2729 2.75 9.96385 2.75Z" fill="black"/>
</svg>

<!-- This Source Code Form is subject to the terms of the Mozilla Public
   - License, v. 2.0. If a copy of the MPL was not distributed with this
   - file, You can obtain one at http://mozilla.org/MPL/2.0/. -->
<svg xmlns="http://www.w3.org/2000/svg" width="20" height="20" fill="context-fill" fill-opacity="context-fill-opacity" viewBox="0 0 20 20">
    <path d="M10 13.5a1 1 0 1 1 0 2 1 1 0 0 1 0-2M10 6.5c.483 0 .875.392.875.875v3.75a.875.875 0 0 1-1.75 0v-3.75c0-.483.392-.875.875-.875" />
    <path fill-rule="evenodd" d="M9.964 1c1.196 0 2.391.599 3.058 1.799l6.024 10.83c1.253 2.255-.283 5.057-2.857 5.2a111 111 0 0 1-12.398-.003c-2.56-.144-4.077-2.932-2.844-5.178l5.95-10.833A3.46 3.46 0 0 1 9.963 1m0 1.75c-.311 0-1.085.09-1.535.908L2.48 14.49a1.74 1.74 0 0 0 .005 1.704c.14.25.553.837 1.403.885a110 110 0 0 0 12.202.003 1.72 1.72 0 0 0 1.426-.901 1.73 1.73 0 0 0 0-1.7L11.493 3.648a1.72 1.72 0 0 0-1.53-.899" clip-rule="evenodd" />
</svg>
